X:44
T:Jimmy Ward's
S:The Session: https://thesession.org/tunes/793#setting47541
C:Traditional
R:jig
K:G
M:6/8
L:1/8
Q:1/4=113
|:"G"G3 GAB|AGE GED|GGG AGE|"D"GED DEF|
|"G"G3 GAB|AGE GAB|cBA BGE|1 "D"DED DEF:|2 "D"DED D2B||
|:"Am"cBA "G"BAG|"D"ABA AGB|"Am"cBA "G"BGE|"D"DED GAB|
|"Am"cBA "G"BAG|"D"ABA ABc|dcB "Am"AGE|1 "D"GED D2B:|2 "D"GED DEF||

